app/images/apple_badge.svg

<svg width="138" height="48" viewBox="0 0 138 48" fill="none" xmlns="http://www.w3.org/2000/svg">
<rect x="0.5" y="0.5" width="137" height="47" rx="7.5" fill="#F8F8F8" stroke="#7F808E"/>
<path d="M86.292 33.4776C84.615 33.4776 83.3878 32.6494 83.2465 31.388L81.295 31.3879C81.4182 33.6886 83.3256 35.144 86.1507 35.144C89.1701 35.144 91.0685 33.6536 91.0685 31.2738C91.0685 29.4133 89.9826 28.3649 87.3689 27.7478L85.9654 27.4036C84.3234 26.9986 83.6522 26.4694 83.6522 25.5701C83.6522 24.4418 84.7031 23.6665 86.2389 23.6665C87.7746 23.6665 88.8255 24.4328 88.9407 25.7021H90.8652C90.8031 23.5075 88.9577 22 86.2659 22C83.5461 22 81.6306 23.5075 81.6306 25.7021C81.6306 27.4747 82.7166 28.567 85.0558 29.1312L86.7067 29.5283C88.3577 29.9335 89.0549 30.5246 89.0549 31.512C89.0549 32.6493 87.8989 33.4776 86.292 33.4776Z" fill="#2B2D33"/>
<path fill-rule="evenodd" clip-rule="evenodd" d="M48.2228 31.4939H53.0785L54.2436 34.9319H56.3353L51.7361 22.212H49.5992L45 34.9319H47.0567L48.2228 31.4939ZM52.5746 29.9074H48.7257L50.6241 24.3276H50.6772L52.5746 29.9074Z" fill="#2B2D33"/>
<path fill-rule="evenodd" clip-rule="evenodd" d="M62.3918 35.0291C64.723 35.0291 66.2677 33.1775 66.2677 30.2956C66.2677 27.4217 64.7139 25.5612 62.3567 25.5612C61.7614 25.542 61.172 25.6843 60.6513 25.973C60.1305 26.2617 59.6979 26.686 59.3994 27.2007H59.3644V25.6582H57.519V38H59.4254V33.4066H59.4696C59.7549 33.9237 60.1803 34.3502 60.6972 34.6372C61.214 34.9241 61.8013 35.0599 62.3918 35.0291ZM61.8538 27.1837C63.3365 27.1837 64.3082 28.4181 64.3082 30.2956C64.3082 32.1902 63.3365 33.4156 61.8538 33.4156C60.3972 33.4156 59.4174 32.1642 59.4174 30.2956C59.4174 28.4441 60.3972 27.1837 61.8538 27.1837Z" fill="#2B2D33"/>
<path fill-rule="evenodd" clip-rule="evenodd" d="M76.4907 30.2956C76.4907 33.1775 74.946 35.0291 72.6148 35.0291C72.0243 35.0599 71.437 34.9241 70.9202 34.6371C70.4034 34.3502 69.9779 33.9237 69.6926 33.4066H69.6484V38H67.742V25.6582H69.5873V27.2007H69.6224C69.9209 26.686 70.3535 26.2617 70.8742 25.973C71.395 25.6843 71.9844 25.542 72.5797 25.5612C74.937 25.5612 76.4907 27.4217 76.4907 30.2956ZM74.5312 30.2956C74.5312 28.418 73.5595 27.1837 72.0768 27.1837C70.6202 27.1837 69.6405 28.444 69.6405 30.2956C69.6405 32.1642 70.6202 33.4156 72.0768 33.4156C73.5595 33.4156 74.5312 32.1902 74.5312 30.2956Z" fill="#2B2D33"/>
<path d="M95.1826 23.4634V25.6581H96.9488V27.1656H95.1826V32.2782C95.1826 33.0724 95.5363 33.4425 96.3126 33.4425C96.5223 33.4389 96.7316 33.4242 96.9398 33.3985V34.8969C96.5907 34.9621 96.2359 34.9916 95.8809 34.985C94.0005 34.985 93.2672 34.2797 93.2672 32.4812V27.1656H91.9168V25.6581H93.2672V23.4634H95.1826Z" fill="#2B2D33"/>
<path fill-rule="evenodd" clip-rule="evenodd" d="M102.377 25.5441C99.6934 25.5441 97.9723 27.3776 97.9723 30.2955C97.9723 33.2214 99.6763 35.047 102.377 35.047C105.079 35.047 106.783 33.2214 106.783 30.2955C106.783 27.3776 105.07 25.5441 102.377 25.5441ZM102.377 27.1126C103.922 27.1126 104.841 28.2939 104.841 30.2955C104.841 32.3052 103.922 33.4775 102.377 33.4775C100.832 33.4775 99.9148 32.3052 99.9148 30.2955C99.9148 28.3029 100.832 27.1126 102.377 27.1126Z" fill="#2B2D33"/>
<path d="M108.354 25.6583H110.173V27.2368H110.217C110.34 26.7438 110.629 26.3081 111.036 26.003C111.443 25.6979 111.942 25.5419 112.451 25.5613C112.67 25.5605 112.89 25.5843 113.104 25.6323V27.4128C112.827 27.3282 112.537 27.2894 112.247 27.2978C111.97 27.2866 111.694 27.3354 111.438 27.4407C111.182 27.5461 110.951 27.7056 110.763 27.9084C110.574 28.1111 110.431 28.3521 110.345 28.615C110.258 28.878 110.229 29.1565 110.261 29.4315V34.9322H108.354L108.354 25.6583Z" fill="#2B2D33"/>
<path fill-rule="evenodd" clip-rule="evenodd" d="M117.895 35.047C119.995 35.047 121.637 33.8916 121.894 32.2081L120.084 32.2081C119.914 32.6272 119.614 32.9805 119.228 33.2155C118.841 33.4505 118.389 33.5547 117.939 33.5125C117.596 33.5251 117.254 33.4647 116.936 33.3354C116.619 33.206 116.332 33.0106 116.096 32.7621C115.859 32.5137 115.679 32.2179 115.566 31.8944C115.453 31.5708 115.41 31.227 115.44 30.8857V30.7707H122V30.1185C122 27.3066 120.384 25.5441 117.814 25.5441C115.202 25.5441 113.516 27.4307 113.516 30.3396C113.516 33.2394 115.193 35.047 117.895 35.047ZM120.093 29.4403H115.449C115.448 29.1303 115.509 28.8232 115.628 28.5368C115.747 28.2503 115.921 27.9902 116.141 27.7713C116.361 27.5525 116.622 27.3793 116.909 27.2618C117.196 27.1443 117.504 27.0847 117.814 27.0865C118.122 27.0799 118.428 27.1369 118.713 27.2539C118.997 27.3709 119.255 27.5454 119.469 27.7664C119.682 27.9874 119.848 28.2502 119.956 28.5382C120.063 28.8263 120.11 29.1334 120.093 29.4403Z" fill="#2B2D33"/>
<path d="M31.6235 9C31.7383 10.5095 31.2644 12.0046 30.3025 13.1677C29.8418 13.7448 29.2572 14.2091 28.5927 14.5256C27.9281 14.8421 27.2009 15.0026 26.4658 14.995C26.4189 14.2691 26.5145 13.541 26.7471 12.8524C26.9797 12.1637 27.3448 11.528 27.8215 10.9815C28.7964 9.86299 30.1539 9.15548 31.6235 9Z" fill="#2B2D33"/>
<path d="M34.3037 19.9862C33.8153 20.853 33.5525 21.8301 33.5397 22.8267C33.5409 23.9477 33.8697 25.0435 34.485 25.9775C35.1004 26.9116 35.975 27.6425 37 28.0792C36.597 29.3979 35.9896 30.6441 35.2002 31.7716C34.14 33.369 33.0285 34.9297 31.2643 34.9585C30.4252 34.978 29.8588 34.735 29.2687 34.4817C28.653 34.2176 28.0116 33.9423 27.0077 33.9423C25.9431 33.9423 25.2729 34.2264 24.6265 34.5005C24.0679 34.7373 23.5271 34.9665 22.765 34.9984C21.0848 35.0611 19.8008 33.2934 18.7021 31.711C16.5061 28.4793 14.7962 22.6037 17.0886 18.6057C17.6178 17.6478 18.3843 16.8443 19.3135 16.2735C20.2427 15.7027 21.3027 15.3841 22.3905 15.3487C23.3434 15.3289 24.2578 15.6989 25.0595 16.0232C25.6725 16.2713 26.2197 16.4927 26.6678 16.4927C27.0616 16.4927 27.5935 16.28 28.2134 16.0322C29.1899 15.6418 30.3846 15.1642 31.6022 15.2929C32.5353 15.3223 33.4487 15.5705 34.27 16.0177C35.0912 16.4649 35.7976 17.0989 36.333 17.8692C35.4902 18.3911 34.792 19.1194 34.3037 19.9862Z" fill="#2B2D33"/>
<path d="M46.414 12.365H47.458C47.566 11.825 48.025 11.519 48.682 11.519C49.33 11.519 49.762 11.861 49.762 12.401C49.762 12.914 49.42 13.292 48.682 13.292H47.863V14.228H48.772C49.483 14.228 49.996 14.507 49.996 15.155C49.996 15.758 49.528 16.145 48.772 16.145C47.98 16.145 47.521 15.758 47.413 15.236H46.351C46.468 16.406 47.413 17.108 48.772 17.108C50.149 17.108 51.085 16.316 51.085 15.173C51.085 14.237 50.383 13.787 49.96 13.679C50.401 13.526 50.851 13.049 50.851 12.329C50.851 11.285 49.996 10.556 48.691 10.556C47.548 10.556 46.531 11.177 46.414 12.365ZM54.7876 13.958V14.219H53.6716C52.5286 14.219 51.8266 14.759 51.8266 15.668C51.8266 16.568 52.5286 17.108 53.4196 17.108C54.0136 17.108 54.5176 16.883 54.8416 16.478V17H55.7956V13.976C55.7956 12.905 55.0486 12.302 53.9236 12.302C52.7986 12.302 52.1416 12.932 52.0066 13.679H52.9786C53.0776 13.391 53.3566 13.148 53.8876 13.148C54.4006 13.148 54.7876 13.418 54.7876 13.958ZM53.6446 16.271C53.1856 16.271 52.8616 16.046 52.8616 15.632C52.8616 15.218 53.2216 14.993 53.7436 14.993H54.7876V15.272C54.7876 15.893 54.2566 16.271 53.6446 16.271ZM60.1509 13.31V12.41H57.0009V17H58.0269V13.31H60.1509ZM63.4734 12.302C62.7444 12.302 62.2764 12.635 62.0514 13.004V12.41H61.0614V18.719H62.0874V16.487C62.3034 16.82 62.7714 17.108 63.4464 17.108C64.5354 17.108 65.5074 16.28 65.5074 14.705C65.5074 13.13 64.5444 12.302 63.4734 12.302ZM63.2754 16.199C62.5464 16.199 62.0604 15.623 62.0604 14.723V14.687C62.0604 13.787 62.5464 13.211 63.2754 13.211C63.9954 13.211 64.4724 13.814 64.4724 14.705C64.4724 15.605 63.9954 16.199 63.2754 16.199ZM69.3844 12.41L68.1784 15.695L66.9724 12.41H65.8654L67.6294 16.919L66.9184 18.719H68.0164L70.4914 12.41H69.3844ZM70.988 13.697H71.969C72.05 13.382 72.347 13.148 72.833 13.148C73.274 13.148 73.571 13.346 73.571 13.697C73.571 14.057 73.301 14.264 72.824 14.264H72.203V15.074H72.878C73.436 15.074 73.733 15.254 73.733 15.632C73.733 16.037 73.391 16.262 72.869 16.262C72.374 16.262 72.005 16.046 71.906 15.65H70.907C71.024 16.577 71.807 17.108 72.869 17.108C73.985 17.108 74.759 16.532 74.759 15.677C74.759 14.993 74.264 14.696 73.913 14.615C74.237 14.48 74.579 14.183 74.579 13.616C74.579 12.815 73.85 12.302 72.887 12.302C71.915 12.302 71.087 12.788 70.988 13.697ZM79.825 12.41H78.835L76.756 15.47V12.41H75.748V17H76.738L78.817 13.949V17H79.825V12.41ZM80.7053 13.31H82.1723V17H83.1983V13.31H84.6653V12.41H80.7053V13.31ZM89.395 15.002V14.579C89.395 13.193 88.576 12.302 87.316 12.302C86.02 12.302 85.111 13.22 85.111 14.714C85.111 16.199 86.02 17.108 87.379 17.108C88.63 17.108 89.224 16.343 89.341 15.758H88.333C88.261 15.965 87.946 16.253 87.397 16.253C86.659 16.253 86.164 15.713 86.164 15.02V15.002H89.395ZM87.307 13.157C87.946 13.157 88.342 13.562 88.369 14.228H86.173C86.236 13.58 86.659 13.157 87.307 13.157ZM92.3329 17H94.4839C95.5279 17 96.0949 16.433 96.0949 15.695C96.0949 15.065 95.6989 14.696 95.2669 14.579C95.5999 14.453 95.9059 14.129 95.9059 13.598C95.9059 12.932 95.4199 12.41 94.3939 12.41H92.3329V17ZM94.3579 15.038C94.8259 15.038 95.0689 15.245 95.0689 15.614C95.0689 15.983 94.8259 16.208 94.3579 16.208H93.3409V15.038H94.3579ZM94.2679 13.202C94.6819 13.202 94.8979 13.382 94.8979 13.724C94.8979 14.057 94.6729 14.264 94.2679 14.264H93.3409V13.202H94.2679Z" fill="#2B2D33"/>
</svg>

<svg width="138" height="48" fill="none" xmlns="http://www.w3.org/2000/svg"><rect x=".5" y=".5" width="137" height="47" rx="7.5" fill="#F8F8F8" stroke="#7F808E"/><path d="M86.292 33.478c-1.677 0-2.904-.829-3.046-2.09h-1.951c.123 2.3 2.03 3.756 4.856 3.756 3.02 0 4.918-1.49 4.918-3.87 0-1.86-1.086-2.91-3.7-3.526l-1.404-.344c-1.642-.405-2.313-.935-2.313-1.834 0-1.128 1.051-1.904 2.587-1.904 1.536 0 2.587.767 2.702 2.036h1.924c-.062-2.195-1.907-3.702-4.6-3.702-2.719 0-4.634 1.508-4.634 3.702 0 1.773 1.086 2.865 3.425 3.43l1.65.396c1.652.405 2.349.997 2.349 1.984 0 1.137-1.156 1.966-2.763 1.966z" fill="#2B2D33"/><path fill-rule="evenodd" clip-rule="evenodd" d="M48.223 31.494h4.855l1.166 3.438h2.091l-4.599-12.72H49.6L45 34.932h2.057l1.166-3.438zm4.352-1.587h-3.85l1.9-5.58h.052l1.898 5.58zm9.817 5.123c2.331 0 3.876-1.852 3.876-4.734 0-2.874-1.554-4.735-3.911-4.735a3.298 3.298 0 00-2.958 1.64h-.035v-1.543H57.52V38h1.906v-4.593h.045a3.146 3.146 0 002.922 1.622zm-.538-7.846c1.483 0 2.454 1.234 2.454 3.112 0 1.894-.972 3.12-2.454 3.12-1.457 0-2.437-1.252-2.437-3.12 0-1.852.98-3.112 2.437-3.112zm14.636 3.112c0 2.882-1.544 4.733-3.875 4.733a3.152 3.152 0 01-2.922-1.622h-.045V38h-1.906V25.658h1.845v1.543h.035a3.293 3.293 0 012.958-1.64c2.357 0 3.91 1.86 3.91 4.735zm-1.959 0c0-1.878-.972-3.112-2.454-3.112-1.457 0-2.436 1.26-2.436 3.112 0 1.868.98 3.12 2.436 3.12 1.483 0 2.454-1.226 2.454-3.12z" fill="#2B2D33"/><path d="M95.183 23.463v2.195h1.766v1.508h-1.766v5.112c0 .794.353 1.165 1.13 1.165.21-.004.419-.019.627-.044v1.498c-.35.065-.704.095-1.06.088-1.88 0-2.613-.705-2.613-2.504v-5.315h-1.35v-1.508h1.35v-2.195h1.916z" fill="#2B2D33"/><path fill-rule="evenodd" clip-rule="evenodd" d="M102.377 25.544c-2.684 0-4.405 1.834-4.405 4.752 0 2.925 1.704 4.751 4.405 4.751 2.702 0 4.406-1.826 4.406-4.751 0-2.918-1.713-4.752-4.406-4.752zm0 1.569c1.545 0 2.464 1.18 2.464 3.183 0 2.01-.919 3.181-2.464 3.181s-2.462-1.172-2.462-3.181c0-1.993.917-3.183 2.462-3.183z" fill="#2B2D33"/><path d="M108.354 25.658h1.819v1.579h.044a2.21 2.21 0 012.234-1.676c.219 0 .439.023.653.071v1.78a2.672 2.672 0 00-.857-.114 1.923 1.923 0 00-1.902 1.317 1.9 1.9 0 00-.084.817v5.5h-1.907v-9.274z" fill="#2B2D33"/><path fill-rule="evenodd" clip-rule="evenodd" d="M117.895 35.047c2.1 0 3.742-1.155 3.999-2.839h-1.81a2.106 2.106 0 01-2.145 1.305 2.427 2.427 0 01-1.843-.75 2.404 2.404 0 01-.656-1.877v-.115H122v-.652c0-2.812-1.616-4.575-4.186-4.575-2.612 0-4.298 1.887-4.298 4.796 0 2.9 1.677 4.707 4.379 4.707zm2.198-5.607h-4.644a2.335 2.335 0 01.692-1.669 2.354 2.354 0 011.673-.684 2.24 2.24 0 011.655.68 2.236 2.236 0 01.624 1.674z" fill="#2B2D33"/><path d="M31.623 9a5.845 5.845 0 01-1.32 4.168 4.866 4.866 0 01-1.71 1.358 4.83 4.83 0 01-2.127.469 5.573 5.573 0 011.355-4.013A5.862 5.862 0 0131.623 9zm2.681 10.986a5.943 5.943 0 00-.764 2.84 5.74 5.74 0 00.945 3.151A5.678 5.678 0 0037 28.08a13.127 13.127 0 01-1.8 3.693c-1.06 1.597-2.172 3.158-3.936 3.187-.839.019-1.405-.224-1.995-.477-.616-.264-1.257-.54-2.261-.54-1.065 0-1.735.284-2.381.559-.56.236-1.1.466-1.862.497-1.68.063-2.964-1.705-4.063-3.287-2.196-3.232-3.906-9.107-1.613-13.105a6.326 6.326 0 012.225-2.333 6.269 6.269 0 013.076-.924c.953-.02 1.868.35 2.67.674.613.248 1.16.47 1.608.47.394 0 .925-.213 1.545-.46.977-.391 2.172-.869 3.39-.74.932.03 1.846.277 2.667.725a6.019 6.019 0 012.063 1.851 5.889 5.889 0 00-2.03 2.117zm12.11-7.621h1.044c.108-.54.567-.846 1.224-.846.648 0 1.08.342 1.08.882 0 .513-.342.891-1.08.891h-.819v.936h.909c.711 0 1.224.279 1.224.927 0 .603-.468.99-1.224.99-.792 0-1.251-.387-1.359-.909h-1.062c.117 1.17 1.062 1.872 2.421 1.872 1.377 0 2.313-.792 2.313-1.935 0-.936-.702-1.386-1.125-1.494.441-.153.891-.63.891-1.35 0-1.044-.855-1.773-2.16-1.773-1.143 0-2.16.621-2.277 1.809zm8.374 1.593v.261h-1.116c-1.143 0-1.845.54-1.845 1.449 0 .9.702 1.44 1.593 1.44.594 0 1.098-.225 1.422-.63V17h.954v-3.024c0-1.071-.747-1.674-1.872-1.674s-1.782.63-1.917 1.377h.972c.099-.288.378-.531.909-.531.513 0 .9.27.9.81zm-1.143 2.313c-.46 0-.783-.225-.783-.639 0-.414.36-.639.882-.639h1.044v.279c0 .621-.531.999-1.143.999zm6.506-2.961v-.9H57V17h1.026v-3.69h2.124zm3.322-1.008c-.729 0-1.197.333-1.422.702v-.594h-.99v6.309h1.026v-2.232c.216.333.684.621 1.36.621 1.088 0 2.06-.828 2.06-2.403 0-1.575-.963-2.403-2.034-2.403zm-.198 3.897c-.729 0-1.215-.576-1.215-1.476v-.036c0-.9.486-1.476 1.215-1.476.72 0 1.197.603 1.197 1.494 0 .9-.477 1.494-1.197 1.494zm6.11-3.789l-1.207 3.285-1.206-3.285h-1.107l1.764 4.509-.71 1.8h1.097l2.475-6.309h-1.107zm1.603 1.287h.981c.081-.315.378-.549.864-.549.441 0 .738.198.738.549 0 .36-.27.567-.747.567h-.621v.81h.675c.558 0 .855.18.855.558 0 .405-.342.63-.864.63-.495 0-.864-.216-.963-.612h-.999c.117.927.9 1.458 1.962 1.458 1.116 0 1.89-.576 1.89-1.431 0-.684-.495-.981-.846-1.062.324-.135.666-.432.666-.999 0-.801-.729-1.314-1.692-1.314-.972 0-1.8.486-1.899 1.395zm8.837-1.287h-.99l-2.079 3.06v-3.06h-1.008V17h.99l2.079-3.051V17h1.008v-4.59zm.88.9h1.467V17h1.026v-3.69h1.467v-.9h-3.96v.9zm8.69 1.692v-.423c0-1.386-.819-2.277-2.079-2.277-1.296 0-2.205.918-2.205 2.412 0 1.485.909 2.394 2.268 2.394 1.251 0 1.845-.765 1.962-1.35h-1.008c-.072.207-.387.495-.936.495-.738 0-1.233-.54-1.233-1.233v-.018h3.231zm-2.088-1.845c.639 0 1.035.405 1.062 1.071h-2.196c.063-.648.486-1.071 1.134-1.071zM92.333 17h2.15c1.045 0 1.612-.567 1.612-1.305 0-.63-.396-.999-.828-1.116.333-.126.639-.45.639-.981 0-.666-.486-1.188-1.512-1.188h-2.061V17zm2.025-1.962c.468 0 .71.207.71.576s-.242.594-.71.594H93.34v-1.17h1.017zm-.09-1.836c.414 0 .63.18.63.522 0 .333-.225.54-.63.54h-.927v-1.062h.927z" fill="#2B2D33"/></svg>
